assets/icons/pc_specs/cpu.svg

<svg xmlns="http://www.w3.org/2000/svg" fill="none" viewBox="0 0 32 32"><path fill="#2B398F" d="M31.0625 14.4375A.9375.9375 0 0 0 32 13.5a.9375.9375 0 0 0-.9375-.9375h-4.125v-3.125h4.125A.9375.9375 0 0 0 32 8.5a.9375.9375 0 0 0-.9375-.9375h-4.125v-.625c0-1.0339-.8411-1.875-1.875-1.875h-.625V.9375A.9375.9375 0 0 0 23.5 0a.9375.9375 0 0 0-.9375.9375v4.125h-3.125V.9375A.9375.9375 0 0 0 18.5 0a.9375.9375 0 0 0-.9375.9375v4.125h-3.125V.9375A.9375.9375 0 0 0 13.5 0a.9375.9375 0 0 0-.9375.9375v4.125h-3.125V.9375a.9375.9375 0 0 0-1.875 0v4.125h-.625c-1.0339 0-1.875.8411-1.875 1.875v.625H.9375a.9375.9375 0 0 0 0 1.875h4.125v3.125H.9375A.9375.9375 0 0 0 0 13.5c0 .5178.4198.9375.9375.9375h4.125v3.125H.9375A.9375.9375 0 0 0 0 18.5c0 .5178.4198.9375.9375.9375h4.125v3.125H.9375A.9375.9375 0 0 0 0 23.5c0 .5178.4198.9375.9375.9375h4.125v.625c0 1.0339.8411 1.875 1.875 1.875h.625v4.125c0 .5178.4197.9375.9375.9375a.9375.9375 0 0 0 .9375-.9375v-4.125h3.125v4.125c0 .5178.4197.9375.9375.9375a.9375.9375 0 0 0 .9375-.9375v-4.125h3.125v4.125c0 .5178.4197.9375.9375.9375a.9375.9375 0 0 0 .9375-.9375v-4.125h3.125v4.125c0 .5178.4197.9375.9375.9375a.9375.9375 0 0 0 .9375-.9375v-4.125h.625c1.0339 0 1.875-.8411 1.875-1.875v-.625h4.125A.9375.9375 0 0 0 32 23.5a.9375.9375 0 0 0-.9375-.9375h-4.125v-3.125h4.125A.9375.9375 0 0 0 32 18.5a.9375.9375 0 0 0-.9375-.9375h-4.125v-3.125h4.125Zm-6 10.625H6.9375V6.9375h18.125c.0012 18.6287.0063 18.125 0 18.125Z"/><path fill="#3749BB" d="M31.0625 14.4375A.9375.9375 0 0 0 32 13.5a.9375.9375 0 0 0-.9375-.9375h-4.125v-3.125h4.125A.9375.9375 0 0 0 32 8.5a.9375.9375 0 0 0-.9375-.9375h-4.125v-.625c0-1.0339-.8411-1.875-1.875-1.875h-.625V.9375A.9375.9375 0 0 0 23.5 0a.9375.9375 0 0 0-.9375.9375v4.125h-3.125V.9375A.9375.9375 0 0 0 18.5 0a.9375.9375 0 0 0-.9375.9375v4.125h-3.125V.9375A.9375.9375 0 0 0 13.5 0a.9375.9375 0 0 0-.9375.9375v4.125h-3.125V.9375a.9375.9375 0 0 0-1.875 0v4.125h-.625c-1.0339 0-1.875.8411-1.875 1.875v.625H.9375a.9375.9375 0 0 0 0 1.875h4.125v3.125H.9375A.9375.9375 0 0 0 0 13.5c0 .5178.4198.9375.9375.9375h4.125v3.125H.9375A.9375.9375 0 0 0 0 18.5c0 .5178.4198.9375.9375.9375h4.125v3.125H.9375A.9375.9375 0 0 0 0 23.5c0 .5178.4198.9375.9375.9375h4.125v.625c0 1.0339.8411 1.875 1.875 1.875h.625v4.125c0 .5178.4197.9375.9375.9375a.9375.9375 0 0 0 .9375-.9375v-4.125h3.125v4.125c0 .5178.4197.9375.9375.9375a.9375.9375 0 0 0 .9375-.9375v-4.125h3.125v4.125c0 .5178.4197.9375.9375.9375a.9375.9375 0 0 0 .9375-.9375v-4.125h3.125v4.125c0 .5178.4197.9375.9375.9375a.9375.9375 0 0 0 .9375-.9375v-4.125h.625c1.0339 0 1.875-.8411 1.875-1.875v-.625h4.125A.9375.9375 0 0 0 32 23.5a.9375.9375 0 0 0-.9375-.9375h-4.125v-3.125h4.125A.9375.9375 0 0 0 32 18.5a.9375.9375 0 0 0-.9375-.9375h-4.125v-3.125h4.125Zm-6 10.625H6.9375V6.9375h18.125c.0012 18.6287.0063 18.125 0 18.125Z"/><path fill="#2B398F" d="M19.7879 10.3371a.9376.9376 0 0 0-.6629-.2746h-6.25a.9376.9376 0 0 0-.6629.2746l-1.875 1.875a.9376.9376 0 0 0-.2746.6629v6.25c0 .2486.0988.4871.2746.6629l1.875 1.875a.9376.9376 0 0 0 .6629.2746h6.25a.9376.9376 0 0 0 .6629-.2746l1.875-1.875a.9376.9376 0 0 0 .2746-.6629v-6.25a.9376.9376 0 0 0-.2746-.6629l-1.875-1.875Zm.2746 8.3996-1.3258 1.3258h-5.4733l-1.3259-1.3258v-5.4733l1.3258-1.3259h5.4733l1.3259 1.3258v5.4734Z"/><path fill="#3749BB" d="M19.7879 10.3371a.9376.9376 0 0 0-.6629-.2746h-6.25a.9376.9376 0 0 0-.6629.2746l-1.875 1.875a.9376.9376 0 0 0-.2746.6629v6.25c0 .2486.0988.4871.2746.6629l1.875 1.875a.9376.9376 0 0 0 .6629.2746h6.25a.9376.9376 0 0 0 .6629-.2746l1.875-1.875a.9376.9376 0 0 0 .2746-.6629v-6.25a.9376.9376 0 0 0-.2746-.6629l-1.875-1.875Zm.2746 8.3996-1.3258 1.3258h-5.4733l-1.3259-1.3258v-5.4733l1.3258-1.3259h5.4733l1.3259 1.3258v5.4734Z"/></svg>

<svg width="32" height="32" viewBox="0 0 32 32" fill="none" xmlns="http://www.w3.org/2000/svg">
<path d="M31.0625 14.4375C31.5803 14.4375 32 14.0178 32 13.5C32 12.9822 31.5803 12.5625 31.0625 12.5625H26.9375V9.4375H31.0625C31.5803 9.4375 32 9.01775 32 8.5C32 7.98225 31.5803 7.5625 31.0625 7.5625H26.9375V6.9375C26.9375 5.90363 26.0964 5.0625 25.0625 5.0625H24.4375V0.9375C24.4375 0.41975 24.0178 0 23.5 0C22.9822 0 22.5625 0.41975 22.5625 0.9375V5.0625H19.4375V0.9375C19.4375 0.41975 19.0178 0 18.5 0C17.9822 0 17.5625 0.41975 17.5625 0.9375V5.0625H14.4375V0.9375C14.4375 0.41975 14.0178 0 13.5 0C12.9822 0 12.5625 0.41975 12.5625 0.9375V5.0625H9.4375V0.9375C9.4375 0.41975 9.01775 0 8.5 0C7.98225 0 7.5625 0.41975 7.5625 0.9375V5.0625H6.9375C5.90363 5.0625 5.0625 5.90363 5.0625 6.9375V7.5625H0.9375C0.41975 7.5625 0 7.98225 0 8.5C0 9.01775 0.41975 9.4375 0.9375 9.4375H5.0625V12.5625H0.9375C0.41975 12.5625 0 12.9822 0 13.5C0 14.0178 0.41975 14.4375 0.9375 14.4375H5.0625V17.5625H0.9375C0.41975 17.5625 0 17.9822 0 18.5C0 19.0178 0.41975 19.4375 0.9375 19.4375H5.0625V22.5625H0.9375C0.41975 22.5625 0 22.9822 0 23.5C0 24.0178 0.41975 24.4375 0.9375 24.4375H5.0625V25.0625C5.0625 26.0964 5.90363 26.9375 6.9375 26.9375H7.5625V31.0625C7.5625 31.5803 7.98225 32 8.5 32C9.01775 32 9.4375 31.5803 9.4375 31.0625V26.9375H12.5625V31.0625C12.5625 31.5803 12.9822 32 13.5 32C14.0178 32 14.4375 31.5803 14.4375 31.0625V26.9375H17.5625V31.0625C17.5625 31.5803 17.9822 32 18.5 32C19.0178 32 19.4375 31.5803 19.4375 31.0625V26.9375H22.5625V31.0625C22.5625 31.5803 22.9822 32 23.5 32C24.0178 32 24.4375 31.5803 24.4375 31.0625V26.9375H25.0625C26.0964 26.9375 26.9375 26.0964 26.9375 25.0625V24.4375H31.0625C31.5803 24.4375 32 24.0178 32 23.5C32 22.9822 31.5803 22.5625 31.0625 22.5625H26.9375V19.4375H31.0625C31.5803 19.4375 32 19.0178 32 18.5C32 17.9822 31.5803 17.5625 31.0625 17.5625H26.9375V14.4375H31.0625ZM25.0625 25.0625H6.9375V6.9375H25.0625C25.0637 25.5662 25.0688 25.0625 25.0625 25.0625Z" fill="#2B398F"/>
<path d="M31.0625 14.4375C31.5803 14.4375 32 14.0178 32 13.5C32 12.9822 31.5803 12.5625 31.0625 12.5625H26.9375V9.4375H31.0625C31.5803 9.4375 32 9.01775 32 8.5C32 7.98225 31.5803 7.5625 31.0625 7.5625H26.9375V6.9375C26.9375 5.90363 26.0964 5.0625 25.0625 5.0625H24.4375V0.9375C24.4375 0.41975 24.0178 0 23.5 0C22.9822 0 22.5625 0.41975 22.5625 0.9375V5.0625H19.4375V0.9375C19.4375 0.41975 19.0178 0 18.5 0C17.9822 0 17.5625 0.41975 17.5625 0.9375V5.0625H14.4375V0.9375C14.4375 0.41975 14.0178 0 13.5 0C12.9822 0 12.5625 0.41975 12.5625 0.9375V5.0625H9.4375V0.9375C9.4375 0.41975 9.01775 0 8.5 0C7.98225 0 7.5625 0.41975 7.5625 0.9375V5.0625H6.9375C5.90363 5.0625 5.0625 5.90363 5.0625 6.9375V7.5625H0.9375C0.41975 7.5625 0 7.98225 0 8.5C0 9.01775 0.41975 9.4375 0.9375 9.4375H5.0625V12.5625H0.9375C0.41975 12.5625 0 12.9822 0 13.5C0 14.0178 0.41975 14.4375 0.9375 14.4375H5.0625V17.5625H0.9375C0.41975 17.5625 0 17.9822 0 18.5C0 19.0178 0.41975 19.4375 0.9375 19.4375H5.0625V22.5625H0.9375C0.41975 22.5625 0 22.9822 0 23.5C0 24.0178 0.41975 24.4375 0.9375 24.4375H5.0625V25.0625C5.0625 26.0964 5.90363 26.9375 6.9375 26.9375H7.5625V31.0625C7.5625 31.5803 7.98225 32 8.5 32C9.01775 32 9.4375 31.5803 9.4375 31.0625V26.9375H12.5625V31.0625C12.5625 31.5803 12.9822 32 13.5 32C14.0178 32 14.4375 31.5803 14.4375 31.0625V26.9375H17.5625V31.0625C17.5625 31.5803 17.9822 32 18.5 32C19.0178 32 19.4375 31.5803 19.4375 31.0625V26.9375H22.5625V31.0625C22.5625 31.5803 22.9822 32 23.5 32C24.0178 32 24.4375 31.5803 24.4375 31.0625V26.9375H25.0625C26.0964 26.9375 26.9375 26.0964 26.9375 25.0625V24.4375H31.0625C31.5803 24.4375 32 24.0178 32 23.5C32 22.9822 31.5803 22.5625 31.0625 22.5625H26.9375V19.4375H31.0625C31.5803 19.4375 32 19.0178 32 18.5C32 17.9822 31.5803 17.5625 31.0625 17.5625H26.9375V14.4375H31.0625ZM25.0625 25.0625H6.9375V6.9375H25.0625C25.0637 25.5662 25.0688 25.0625 25.0625 25.0625Z" fill="#3749BB"/>
<path d="M19.7879 10.3371C19.6121 10.1613 19.3736 10.0625 19.125 10.0625H12.875C12.6264 10.0625 12.3879 10.1613 12.2121 10.3371L10.3371 12.2121C10.1613 12.3879 10.0625 12.6264 10.0625 12.875V19.125C10.0625 19.3736 10.1613 19.6121 10.3371 19.7879L12.2121 21.6629C12.3879 21.8387 12.6264 21.9375 12.875 21.9375H19.125C19.3736 21.9375 19.6121 21.8387 19.7879 21.6629L21.6629 19.7879C21.8387 19.6121 21.9375 19.3736 21.9375 19.125V12.875C21.9375 12.6264 21.8387 12.3879 21.6629 12.2121L19.7879 10.3371ZM20.0625 18.7367L18.7367 20.0625H13.2634L11.9375 18.7367V13.2634L13.2633 11.9375H18.7366L20.0625 13.2633V18.7367Z" fill="#2B398F"/>
<path d="M19.7879 10.3371C19.6121 10.1613 19.3736 10.0625 19.125 10.0625H12.875C12.6264 10.0625 12.3879 10.1613 12.2121 10.3371L10.3371 12.2121C10.1613 12.3879 10.0625 12.6264 10.0625 12.875V19.125C10.0625 19.3736 10.1613 19.6121 10.3371 19.7879L12.2121 21.6629C12.3879 21.8387 12.6264 21.9375 12.875 21.9375H19.125C19.3736 21.9375 19.6121 21.8387 19.7879 21.6629L21.6629 19.7879C21.8387 19.6121 21.9375 19.3736 21.9375 19.125V12.875C21.9375 12.6264 21.8387 12.3879 21.6629 12.2121L19.7879 10.3371ZM20.0625 18.7367L18.7367 20.0625H13.2634L11.9375 18.7367V13.2634L13.2633 11.9375H18.7366L20.0625 13.2633V18.7367Z" fill="#3749BB"/>
</svg>
